X: 20032
Q: "Allegro"
M: 6/8
L: 1/8
K: D
|:\
d>fa afd | baf {f}e2d | df.a bc'.d' | def e2d |\
dfa afd | b>af {f}e2d | B>dB A<FA | F<dF TE2D |
d>fa afd | b>af {f}e2d | df.a bc'.d' | def e2d |\
dfa afd | baf {f}e2d | B>dB A<FA | F<dF TE2D |]


